X: 28286
T: Mrs. O'Brien
R: slip jig
M: 9/8
K: Edorian
|:F|~G2 E Eed BAG|~F2 D DdB AGF|GFE Eed BAG|FAd AFD E2:|
|:f|~g2 e fed Beg|~f2 d dcd faf|~g2 e fed Beg|fed faf ~e2 f|
~g2 e fed Bec|dAA BAG FED|GFE Eed BAG|FAd AFD E2:|

